X: 41621
T: Up Leitrim
R: jig
M: 6/8
K: Dmajor
d2e|:f2e dAA|BAB dBA|f2e dBA|Bdf e2d:|
f2a gbb|faf fed|faa gab|afd e2d|
faa gbb|faf fed|f2e dBA|Bdf eag||

